X: 9
T:D-Dur-Lndler#25
M:3/4
L:1/8
S:j.m. schmalnauer: "tanz musik", bhlau, wien 1996 (compa bd. 5) 
C:trad
R:Lndler
N:halbe Applikatur
K:D
FG|A2 GeFf|egb2 a2 |g"0"AFf"0" Ae|dfdA FG
|A2 GeFf|egb2 a2 |g"0"AFf"0"Ae|d4   :|
|:fa| gAFf Ae|Ffa2ba|g"0"AFf"0" Ae|dfFd fa
| gAFf Ae|Ffa2ba|g"0"AFf"0" Ae|d4   :|
